src/icons/intrafish.svg

<?xml version="1.0" encoding="UTF-8"?>
<svg width="184px" height="29px" viewBox="0 0 184 29" version="1.1" xmlns="http://www.w3.org/2000/svg" xmlns:xlink="http://www.w3.org/1999/xlink">
    <!-- Generator: sketchtool 54.1 (76490) - https://sketchapp.com -->
    <title>E931AECF-9639-4EFD-9412-B69A93DA11AD</title>
    <desc>Created with sketchtool.</desc>
    <defs>
        <polygon id="path-1" points="0 28.8964 182.617318 28.8964 182.617318 -0.0001 0 -0.0001"></polygon>
    </defs>
    <g id="elements" stroke="none" stroke-width="1" fill="none" fill-rule="evenodd">
        <g id="Header-IFNO" transform="translate(-200.000000, -263.000000)">
            <g id="header" transform="translate(40.000000, 249.000000)">
                <g id="logo-/-if" transform="translate(161.000000, 9.000000)">
                    <g id="Group-19" transform="translate(0.000000, 5.000000)">
                        <g id="Group-4" transform="translate(0.000000, 1.896400)">
                            <path d="M46.1582113,1.5001 C45.3766699,0.5986 44.2053688,0.0836 42.9031367,0.0836 L4.62125552,0.0836 C2.14721685,0.2126 0.194374309,2.1441 0.194374309,4.4626 L0.194374309,21.8486 C0.194374309,22.2351 0.194374309,22.6211 0.324799724,23.0076 C6.31425829,18.5001 14.2570649,16.3106 21.9395262,14.1211 C31.8351754,11.4166 41.0802141,8.8411 46.1582113,1.5001" id="Fill-1" fill="#FCC944"></path>
                            <path d="M46.1582113,1.5001 C45.3766699,0.5986 44.2053688,0.0836 42.9031367,0.0836 L4.62125552,0.0836 C2.14721685,0.2126 0.194374309,2.1441 0.194374309,4.4626 L0.194374309,21.8486 C0.194374309,22.2351 0.194374309,22.6211 0.324799724,23.0076 C6.31425829,18.5001 14.2570649,16.3106 21.9395262,14.1211 C31.8351754,11.4166 41.0802141,8.8411 46.1582113,1.5001" id="Stroke-3" stroke="#FFFFFF" stroke-width="0.5" stroke-linecap="round" stroke-linejoin="round"></path>
                        </g>
                        <g id="Group-8" transform="translate(1.516575, 5.396400)">
                            <path d="M21.0735116,12.9396 C13.6513956,15.0001 5.83901436,17.1896 0.109901105,21.5681 C0.891442541,22.3411 1.93332928,22.8561 3.10463039,22.8561 L41.5164315,22.8561 C43.9904702,22.8561 45.9438182,20.9246 45.9438182,18.4771 L45.9438182,1.0916 L45.9438182,0.4476 C40.0842796,7.5306 30.8392409,10.1061 21.0735116,12.9396" id="Fill-5" fill="#0086CB"></path>
                            <path d="M21.0735116,12.9396 C13.6513956,15.0001 5.83901436,17.1896 0.109901105,21.5681 C0.891442541,22.3411 1.93332928,22.8561 3.10463039,22.8561 L41.5164315,22.8561 C43.9904702,22.8561 45.9438182,20.9246 45.9438182,18.4771 L45.9438182,1.0916 L45.9438182,0.4476 C40.0842796,7.5306 30.8392409,10.1061 21.0735116,12.9396" id="Stroke-7" stroke="#FFFFFF" stroke-width="0.5" stroke-linecap="round" stroke-linejoin="round"></path>
                        </g>
                        <mask id="mask-2" fill="white">
                            <use xlink:href="#path-1"></use>
                        </mask>
                        <g id="Clip-10"></g>
                        <polygon id="Fill-9" fill="#000000" mask="url(#mask-2)" points="53.7105 28.3814 58.6580718 28.3814 58.6580718 2.2379 53.7105 2.2379"></polygon>
                        <path d="M74.4138157,28.3814 L74.4138157,16.1464 C74.4138157,14.3439 73.8931251,13.3129 72.4604677,13.3129 C70.3771997,13.3129 68.684197,16.0174 68.684197,19.2374 L68.684197,28.5099 L63.8670506,28.5099 L63.8670506,13.3129 C62.8251638,13.1844 61.7832771,12.9269 60.7413903,12.9269 L60.7413903,9.5789 C63.2159345,9.1919 65.8198931,9.1919 68.2939318,9.1919 C68.2939318,10.3509 68.1635064,11.3814 68.0335865,12.5404 C69.0749677,10.2224 71.4185809,8.6769 74.023045,8.8059 C77.9292356,8.8059 79.2314677,11.6394 79.2314677,14.9874 L79.2314677,28.3814 L74.4138157,28.3814 Z" id="Fill-11" fill="#000000" mask="url(#mask-2)"></path>
                        <path d="M88.6065273,28.7676 C84.6998312,28.7676 83.5280246,27.2221 83.5280246,22.7151 L83.5280246,13.3131 L80.6637207,13.3131 L80.6637207,9.1921 L83.3981047,9.1921 L83.3981047,3.3966 L88.2162622,1.8511 L88.2162622,9.1921 L92.2523727,9.1921 L92.2523727,13.3131 L88.2162622,13.3131 L88.2162622,21.4266 C88.2162622,23.7451 88.7369528,24.3886 90.1691047,24.3886 C90.8202207,24.3886 91.4708312,24.2601 92.1219472,24.1316 L92.512718,28.2526 C91.2104859,28.6386 89.9082539,28.7676 88.6065273,28.7676" id="Fill-12" fill="#000000" mask="url(#mask-2)"></path>
                        <path d="M106.445034,13.95705 C103.189959,13.18455 101.627382,15.37405 101.627382,20.52555 L101.627382,28.38155 L96.8092243,28.38155 L96.8092243,13.31305 C95.7678431,13.05555 94.7259564,12.92655 93.6845751,12.92655 L93.6845751,9.57855 C96.1586138,9.19205 98.7630779,9.19205 101.236611,9.19205 C101.236611,10.48005 101.106186,11.63905 100.976771,12.92655 L101.106186,12.92655 C102.018152,10.60905 103.58073,8.54855 106.705885,8.80555 L106.445034,13.95705 Z" id="Fill-13" fill="#000000" mask="url(#mask-2)"></path>
                        <path d="M118.033585,28.3814 C118.033585,27.3509 118.033585,26.3209 118.16401,25.1619 C117.252549,27.3509 115.038855,28.7674 112.694736,28.7674 C109.440167,28.7674 107.617245,26.5784 107.617245,23.4874 C107.617245,18.7224 111.783781,16.4044 117.643319,16.4044 L117.643319,15.6314 C117.643319,13.8289 116.862283,12.9269 114.387739,12.9269 C112.565322,13.0559 110.872319,13.4419 109.309742,14.3439 L108.789051,9.9649 C110.872319,9.1919 112.955587,8.8059 115.038855,8.8059 C120.898394,8.8059 122.460971,11.3814 122.460971,15.5024 L122.460971,24.2604 C123.502352,24.3889 124.544239,24.6464 125.58562,24.6464 L125.58562,27.9949 C123.112087,28.3814 120.508129,28.5099 118.033585,28.3814 L118.033585,28.3814 Z M117.643319,19.8814 C113.346358,19.8814 112.304471,21.0404 112.304471,22.7149 C112.304471,23.8734 113.086013,24.6464 114.257314,24.6464 C116.341087,24.6464 117.773239,22.5859 117.773239,20.3964 L117.643319,19.8814 Z" id="Fill-14" fill="#000000" mask="url(#mask-2)"></path>
                        <polygon id="Fill-15" fill="#000000" mask="url(#mask-2)" points="132.35662 6.87405 132.35662 13.18455 139.908656 13.18455 139.908656 17.56305 132.35662 17.56305 132.35662 28.38155 127.538969 28.38155 127.538969 2.23805 140.299427 2.23805 140.299427 6.87405"></polygon>
                        <path d="M144.336195,28.3814 L144.336195,13.3129 C143.294308,13.1844 142.252927,12.9269 141.21104,12.9269 L141.21104,9.5789 C143.815504,9.1919 146.419463,9.0634 149.023421,9.1919 L149.023421,28.3814 L144.336195,28.3814 Z M146.679808,6.6164 C144.986805,6.6164 143.685079,5.1999 143.685079,3.3964 C143.685079,1.5939 144.986805,0.1774 146.679808,0.1774 C148.372305,0.1774 149.675043,1.5939 149.675043,3.3964 C149.675043,5.1999 148.372305,6.6164 146.679808,6.6164 L146.679808,6.6164 Z" id="Fill-16" fill="#000000" mask="url(#mask-2)"></path>
                        <path d="M156.836055,28.8965 C155.534329,28.8965 154.232097,28.7675 153.059785,28.3815 L153.320635,24.0025 C154.491936,24.5175 155.794169,24.7755 156.966481,24.7755 C158.529058,24.7755 159.570439,24.1315 159.570439,22.972 C159.570439,19.7525 152.669519,21.5555 152.669519,15.116 C152.669519,11.639 155.013133,8.9345 160.221555,8.9345 C161.263442,8.9345 162.304823,9.0635 163.34671,9.321 L163.085859,13.442 C162.044478,13.0555 161.002591,12.927 159.96121,12.927 C158.398633,12.927 157.617597,13.6995 157.617597,14.73 C157.617597,17.692 164.518517,16.2755 164.518517,22.457 C164.648436,26.321 161.523282,28.8965 156.836055,28.8965" id="Fill-17" fill="#000000" mask="url(#mask-2)"></path>
                        <path d="M177.669746,28.3814 L177.669746,16.1464 C177.669746,14.3439 177.149055,13.3129 175.716398,13.3129 C173.50321,13.3129 171.940633,16.0174 171.940633,19.2374 L171.940633,28.5099 L167.122981,28.5099 L167.122981,4.1694 C166.081094,4.0404 165.039713,3.7834 163.997826,3.7834 L163.997826,0.4344 C166.601785,0.0484 169.206249,-0.0806 171.940633,0.0484 L171.940633,8.1619 C171.940633,9.4499 171.810207,10.7374 171.679782,12.0254 C172.721669,9.8359 174.935362,8.5484 177.408895,8.5484 C181.315591,8.5484 182.617318,11.3814 182.617318,14.7299 L182.617318,28.2524 L177.669746,28.3814 Z" id="Fill-18" fill="#000000" mask="url(#mask-2)"></path>
                    </g>
                </g>
            </g>
        </g>
    </g>
</svg>

<svg xmlns="http://www.w3.org/2000/svg" xmlns:xlink="http://www.w3.org/1999/xlink" viewBox="0 0 184 29">
  <title>Intrafish</title>
  <defs>
    <path id="a" d="M0 28.896h182.617V0H0z"/>
  </defs>
  <g fill="none" fill-rule="evenodd" transform="translate(1)">
    <path fill="#FCC944" d="M46.158 3.397c-.781-.902-1.953-1.417-3.255-1.417H4.621C2.147 2.109.194 4.04.194 6.359v17.386c0 .386 0 .772.13 1.159 5.99-4.508 13.933-6.697 21.616-8.886 9.895-2.705 19.14-5.28 24.218-12.622"/>
    <path stroke="#FFF" stroke-linecap="round" stroke-linejoin="round" stroke-width=".5" d="M46.158 3.397c-.781-.902-1.953-1.417-3.255-1.417H4.621C2.147 2.109.194 4.04.194 6.359v17.386c0 .386 0 .772.13 1.159 5.99-4.508 13.933-6.697 21.616-8.886 9.895-2.705 19.14-5.28 24.218-12.622"/>
    <path fill="#0086CB" d="M22.59 18.336c-7.422 2.06-15.234 4.25-20.964 8.629.782.773 1.824 1.288 2.995 1.288h38.412c2.474 0 4.427-1.932 4.427-4.38V5.845c-5.86 7.083-15.104 9.659-24.87 12.492"/>
    <path stroke="#FFF" stroke-linecap="round" stroke-linejoin="round" stroke-width=".5" d="M22.59 18.336c-7.422 2.06-15.234 4.25-20.964 8.629.782.773 1.824 1.288 2.995 1.288h38.412c2.474 0 4.427-1.932 4.427-4.38V5.845c-5.86 7.083-15.104 9.659-24.87 12.492"/>
    <path fill="#000" d="M53.711 28.381h4.947V2.238h-4.947zM74.414 28.381V16.146c0-1.802-.52-2.833-1.954-2.833-2.083 0-3.776 2.704-3.776 5.924v9.273h-4.817V13.313c-1.042-.129-2.084-.386-3.126-.386V9.579c2.475-.387 5.079-.387 7.553-.387 0 1.159-.13 2.19-.26 3.348 1.041-2.318 3.385-3.863 5.989-3.734 3.906 0 5.208 2.833 5.208 6.181v13.394h-4.817ZM88.607 28.768c-3.907 0-5.079-1.546-5.079-6.053v-9.402h-2.864v-4.12h2.734V3.396l4.818-1.546v7.341h4.036v4.121h-4.036v8.114c0 2.318.521 2.962 1.953 2.962.651 0 1.302-.129 1.953-.257l.39 4.12c-1.302.387-2.604.516-3.905.516M106.445 13.957c-3.255-.772-4.818 1.417-4.818 6.569v7.856H96.81V13.313a12.977 12.977 0 0 0-3.124-.386V9.579c2.474-.387 5.078-.387 7.552-.387 0 1.288-.13 2.447-.26 3.735h.13c.911-2.318 2.474-4.378 5.599-4.121l-.261 5.151ZM118.034 28.381c0-1.03 0-2.06.13-3.22-.911 2.19-3.125 3.606-5.47 3.606-3.254 0-5.077-2.189-5.077-5.28 0-4.765 4.167-7.083 10.026-7.083v-.773c0-1.802-.78-2.704-3.255-2.704-1.823.129-3.516.515-5.078 1.417l-.52-4.38c2.082-.772 4.166-1.158 6.249-1.158 5.86 0 7.422 2.575 7.422 6.696v8.758c1.041.129 2.083.386 3.125.386v3.349c-2.474.386-5.078.515-7.552.386Zm-.39-8.5c-4.298 0-5.34 1.16-5.34 2.834 0 1.158.782 1.931 1.953 1.931 2.084 0 3.516-2.06 3.516-4.25l-.13-.515ZM132.357 6.874v6.311h7.552v4.378h-7.552v10.819h-4.818V2.238h12.76v4.636zM144.336 28.381V13.313c-1.042-.129-2.083-.386-3.125-.386V9.579c2.605-.387 5.208-.516 7.812-.387v19.19h-4.687Zm2.344-21.765c-1.693 0-2.995-1.416-2.995-3.22 0-1.802 1.302-3.219 2.995-3.219 1.692 0 2.995 1.417 2.995 3.22 0 1.803-1.303 3.22-2.995 3.22ZM156.836 28.896c-1.302 0-2.604-.129-3.776-.515l.26-4.378a9.277 9.277 0 0 0 3.646.773c1.563 0 2.604-.645 2.604-1.804 0-3.22-6.9-1.417-6.9-7.856 0-3.477 2.343-6.181 7.552-6.181 1.041 0 2.083.128 3.125.386l-.261 4.121c-1.042-.386-2.083-.515-3.125-.515-1.562 0-2.343.773-2.343 1.803 0 2.962 6.9 1.546 6.9 7.727.13 3.864-2.995 6.44-7.682 6.44M177.67 28.381V16.146c0-1.802-.52-2.833-1.954-2.833-2.213 0-3.775 2.704-3.775 5.924v9.273h-4.818V4.17c-1.042-.13-2.083-.387-3.125-.387V.434c2.604-.386 5.208-.515 7.943-.386v8.114c0 1.288-.13 2.575-.261 3.863 1.042-2.19 3.255-3.477 5.729-3.477 3.907 0 5.208 2.833 5.208 6.182v13.522l-4.947.13Z"/>
  </g>
</svg>
